logos/typo3-icon.svg

<?xml version="1.0" encoding="UTF-8"?>
<svg width="256px" height="260px" viewBox="0 0 256 260" version="1.1" xmlns="http://www.w3.org/2000/svg" xmlns:xlink="http://www.w3.org/1999/xlink" preserveAspectRatio="xMidYMid">
    <g>
        <path d="M109.525333,4.05333333 C104.810667,8.08533333 101.461333,12.8 101.461333,26.88 C101.461333,65.1946667 149.824,180.288 182.762667,180.288 C186.462268,180.338187 190.147176,179.812799 193.685333,178.730667 L193.616,178.75 L192.774258,180.100166 C164.346546,225.411559 130.133077,258.650903 109.429541,259.317782 L108.8,259.328 C63.8293333,259.328 0,123.562667 0,63.8293333 C0,54.4213333 2.13333333,47.04 5.376,42.4533333 C20.8426667,23.552 69.2053333,8.74666667 109.525333,4.05333333 Z M172.672,0 C214.314667,0 256,6.72 256,30.2293333 C256,77.9306667 225.749333,135.744 210.304,135.744 C182.762667,135.744 148.437333,59.136 148.437333,20.8213333 C148.437333,3.34933333 155.136,0 172.608,0 L172.672,0 Z" fill="#F49700"></path>
    </g>
</svg>

<svg width="256" height="260" xmlns="http://www.w3.org/2000/svg" preserveAspectRatio="xMidYMid">
	<path d="M109.525 4.053c-4.714 4.032-8.064 8.747-8.064 22.827 0 38.315 48.363 153.408 81.302 153.408 3.7.05 7.384-.475 10.922-1.557l-.069.019-.842 1.35c-28.427 45.312-62.64 78.55-83.344 79.218l-.63.01C63.83 259.328 0 123.563 0 63.829c0-9.408 2.133-16.789 5.376-21.376 15.467-18.901 63.83-33.706 104.15-38.4ZM172.672 0C214.315 0 256 6.72 256 30.23c0 47.7-30.25 105.514-45.696 105.514-27.541 0-61.867-76.608-61.867-114.923C148.437 3.35 155.136 0 172.608 0h.064Z" fill="#F49700"/>
</svg>
